X: 24
T:Over The Waterfall
M:4/4
L:1/8
C:
S:AABB form
R:Key of D
K:D
|:de|f2a2gfe2|d2B2A2de|f2a2gfe2|!d2ddd2de|f2a2gfe2|d2B2A2AB|=c2c2B2A2|G6
:|!
|:FG|A2A2B2B2|ABAGF2FG|A2d2^cde2|!f2f2f2FG|A2A2B2B2|ABAGF2FG|A2d2cde2|d6
